build/images/logos/acf.svg

<?xml version="1.0" encoding="UTF-8"?>
<svg width="150px" height="69px" viewBox="0 0 150 69" version="1.1" xmlns="http://www.w3.org/2000/svg" xmlns:xlink="http://www.w3.org/1999/xlink">
    <title>acf</title>
    <g id="Page-1" stroke="none" stroke-width="1" fill="none" fill-rule="evenodd">
        <g id="acf" fill="#FFFFFF" fill-rule="nonzero">
            <path d="M33.017376,27.2650082 L38.801819,43.0551588 L27.474021,43.1601525 C27.6106745,41.8791193 29.616037,36.8399813 30.150985,35.2545222 L32.828505,27.5694341 C32.975158,27.286118 32.912386,27.4016666 33.017376,27.2650082 Z M98.033338,29.1026742 L105.738707,29.1026742 L105.738707,40.3253249 L98.033338,40.3358798 C97.04621,44.2939724 94.002059,47.968749 90.779036,50.278053 C79.115159,58.645877 61.184108,50.656363 61.1211532,34.8034386 C61.079118,24.9240395 68.354529,17.4172739 77.078689,16.0212477 C86.338353,14.5513371 95.82855,20.5776372 98.033338,29.1026742 Z M0,68.399173 L0,68.545831 L17.5949723,68.56694 L21.1751831,59.128626 C21.4901528,58.488109 21.1646286,58.855864 21.6056972,58.624767 L44.691252,58.645877 C45.027331,59.779697 48.187026,67.905314 48.606986,68.419727 L66.937443,68.577495 L65.929207,65.98432 C70.915949,67.538114 74.779466,69.070799 81.467155,68.99747 C89.05698,68.903031 96.321836,65.480461 101.182479,61.574588 C102.054061,60.881852 102.673446,60.377994 103.481702,59.538045 C104.216631,58.792535 104.95156,58.068135 105.718153,57.312625 L105.738707,68.99747 L122.095465,68.99747 L122.095465,56.546005 C122.095465,54.582791 121.853821,45.165586 122.1899,44.042321 L148.309607,43.9789915 L148.309607,28.6615899 L122.231563,28.6721448 L122.08491,28.4727125 C121.927148,27.9477445 122.021583,23.1074833 122.021583,22.4986315 C122.021583,21.2181538 121.717168,17.0184093 122.1899,16.1473511 L150,16.0840217 L150,0.241652 L105.675935,0.241652 L105.738707,12.136484 C102.904535,9.4805344 103.440039,9.4699795 99.733729,6.7718103 C92.322221,1.3754719 81.907668,-0.8399489 72.574678,1.3126979 C66.076415,2.8137177 60.63805,5.8374227 55.997941,10.3938122 C55.472991,10.9082254 55.136913,11.3281998 54.601964,11.8531679 C52.523276,13.8686009 49.667439,18.5616487 48.501996,21.5014699 L47.987601,22.5302962 C47.315999,20.4409788 42.297594,8.7244693 41.02716,5.6168806 C40.407776,4.1053058 39.38954,1.1971494 38.634057,0 L27.0962796,0 L0,68.399173 Z" id="Shape"></path>
        </g>
    </g>
</svg>

<svg width="150" height="69" xmlns="http://www.w3.org/2000/svg"><path d="M33.017 27.265l5.785 15.79-11.328.105c.137-1.28 2.142-6.32 2.677-7.905l2.678-7.686c.146-.283.083-.167.188-.304zm65.016 1.838h7.706v11.222l-7.706.01c-.987 3.959-4.03 7.634-7.254 9.943-11.664 8.368-29.595.378-29.658-15.475-.042-9.879 7.234-17.386 15.958-18.782 9.26-1.47 18.75 4.557 20.954 13.082zM0 68.399v.147l17.595.02 3.58-9.437c.315-.64-.01-.273.43-.504l23.086.02c.336 1.135 3.496 9.26 3.916 9.775l18.33.157-1.008-2.593c4.987 1.554 8.85 3.087 15.538 3.013 7.59-.094 14.855-3.517 19.715-7.422.872-.693 1.491-1.197 2.3-2.037.735-.745 1.47-1.47 2.236-2.225l.02 11.684h16.357V56.546c0-1.963-.241-11.38.095-12.504l26.12-.063V28.662l-26.078.01-.147-.2c-.158-.524-.063-5.365-.063-5.973 0-1.28-.305-5.48.168-6.352l27.81-.063V.242h-44.324l.063 11.894c-2.834-2.655-2.299-2.666-6.005-5.364-7.412-5.397-17.826-7.612-27.16-5.46-6.498 1.502-11.936 4.525-16.576 9.082-.525.514-.861.934-1.396 1.46-2.079 2.015-4.935 6.708-6.1 9.647l-.514 1.03c-.672-2.09-5.69-13.807-6.96-16.914-.62-1.512-1.638-4.42-2.394-5.617H27.096L0 68.4z" fill="#FFF" fill-rule="nonzero"/></svg>
